storage/app/icons/tabler/filled/car-suv.svg

<!--
unicode: "1004d"
version: "3.17"
-->
<svg
  xmlns="http://www.w3.org/2000/svg"
  width="24"
  height="24"
  viewBox="0 0 24 24"
  fill="currentColor"
>
  <path d="M7 14a3 3 0 1 1 -3 3l.005 -.176a3 3 0 0 1 2.995 -2.824m11 0a3 3 0 1 1 -3 3l.005 -.176a3 3 0 0 1 2.995 -2.824m-11 2a1 1 0 1 0 0 2a1 1 0 0 0 0 -2m11 0a1 1 0 1 0 0 2a1 1 0 0 0 0 -2m-3.562 -12a3 3 0 0 1 2.91 2.272l.433 1.728h2.219a3 3 0 0 1 2.995 2.824l.005 .176v3.02l-.01 .117a1 1 0 0 1 -.286 .575l-.107 .091l-.07 .049l-.076 .042l-.106 .046l-.017 .005l-.047 .016l-.108 .025l-.118 .013l-.08 .002l-.122 -.012l-.148 -.033l-.063 -.022a1 1 0 0 1 -.362 -.24l-.08 -.094a4 4 0 0 0 -3.2 -1.6a4 4 0 0 0 -3.2 1.6a1 1 0 0 1 -.8 .4h-3a1 1 0 0 1 -.8 -.4a3.998 3.998 0 0 0 -6.402 .002a1 1 0 1 1 -1.602 -1.198c.493 -.66 1.11 -1.2 1.804 -1.602v-2.792a1 1 0 0 1 .06 -.35l.042 -.1l2.004 -4.007a1 1 0 0 1 .894 -.553zm-12.438 2a1 1 0 0 1 1 1v4a1 1 0 0 1 -2 0v-4a1 1 0 0 1 1 -1m12.438 0h-3.438v2h4.718l-.31 -1.243a1 1 0 0 0 -.97 -.757m-5.438 0h-1.382l-1.001 2h2.383z" />
</svg>

<svg xmlns="http://www.w3.org/2000/svg" width="24" height="24" fill="currentColor" viewBox="0 0 24 24"><path d="M7 14a3 3 0 1 1-3 3l.005-.176A3 3 0 0 1 7 14m11 0a3 3 0 1 1-3 3l.005-.176A3 3 0 0 1 18 14M7 16a1 1 0 1 0 0 2 1 1 0 0 0 0-2m11 0a1 1 0 1 0 0 2 1 1 0 0 0 0-2M14.438 4a3 3 0 0 1 2.91 2.272L17.781 8H20a3 3 0 0 1 2.995 2.824L23 11v3.02l-.01.117a1 1 0 0 1-.286.575l-.107.091-.07.049-.076.042-.106.046-.017.005-.047.016-.108.025-.118.013-.08.002-.122-.012-.148-.033-.063-.022a1 1 0 0 1-.362-.24l-.08-.094A4 4 0 0 0 18 13a4 4 0 0 0-3.2 1.6 1 1 0 0 1-.8.4h-3a1 1 0 0 1-.8-.4 3.998 3.998 0 0 0-6.402.002 1 1 0 1 1-1.602-1.198c.493-.66 1.11-1.2 1.804-1.602V9.01a1 1 0 0 1 .06-.35l.042-.1 2.004-4.007A1 1 0 0 1 7 4zM2 6a1 1 0 0 1 1 1v4a1 1 0 0 1-2 0V7a1 1 0 0 1 1-1m12.438 0H11v2h4.718l-.31-1.243a1 1 0 0 0-.97-.757M9 6H7.618L6.617 8H9z"/></svg>
